!!!COM: Bach, Johann Sebastian
!!!OPR: Joh. Seb. Bachs vierstimmige Choralges‰nge
!!!XEN: Four-part Chorales
!!!OTL: 184. Wir glauben all an einen Gott
!!!SCT: BWV 437
!!!SCA: Thematisch-systematisches Verzeichnis der musikalischen Werke Johann Sebastian Bach: Bach-Werke-Verzeichnis (Schmieder)
!!!YOR: Bach Gesellschaft Edition xxxix
!!!ENC: Steven Rasmussen
!!!CDT: 1685/3//-1750/7/28/
!!!OCY: Deutschland
!!!YEC: Copyright (c) 1994, 2000 Center for Computer Assisted Research in the Humanities
!!!YEM: Rights to all derivative editions reserved
!!!YEN: United States of America
**kern	**silbe	**kern	**silbe	**kern	**silbe	**kern	**silbe
*I:[SOPRANO]	*I:[SOPRANO]	*I:[ALTO]	*I:[ALTO]	*I:[TENORE]	*I:[TENORE]	*I:[BASSO]	*I:[BASSO]
*clefG2	*	*clefG2	*	*clefGv2	*	*clefF4	*
*k[]	*	*k[]	*	*k[]	*	*k[]	*
*a:	*	*a:	*	*a:	*	*a:	*
*M4/4	*	*M4/4	*	*M4/4	*	*M4/4	*
=1-	=1-	=1-	=1-	=1-	=1-	=1-	=1-
2d	Wir	4r	.	4r	.	4r	.
.	.	4A	Wir	8FL	Wir	8DL	Wir
.	.	.	.	8GJ	.	8E	.
4a	.	8d	glau-	4A	glau-	8F	.
.	.	4f	.	.	.	8DJ	.
4g	.	.	.	8dL	.	4B-	.
.	.	16eLL	.	[8GJ	.	.	.
.	.	16dJJ	.	.	.	.	.
=2	=2	=2	=2	=2	=2	=2	=2
4a	.	4.e	.	8GL]	.	4.C#	glau-
.	.	.	.	16FL	.	.	.
.	.	.	.	16EJJ	.	.	.
4e	.	.	.	4A	.	.	.
.	.	16dLL	.	.	.	16BBLL	.
.	.	16c#JJ	.	.	.	16AAJJ	.
2f	glau-	[2d	.	[2A	-ben	8DL	.
.	.	.	.	.	.	8E	.
.	.	.	.	.	.	8F	.
.	.	.	.	.	.	8DJ	.
=3	=3	=3	=3	=3	=3	=3	=3
2e;	-ben	4d]	.	2A;]	.	2AA;	-ben
.	.	4c#;	-ben	.	.	.	.
2g	all	4r	.	4r	.	4r	.
.	.	8dL	all	8DL	all	8BBL	all
.	.	[8eJ	.	8AJ	.	8C#J	.
=4	=4	=4	=4	=4	=4	=4	=4
4f	.	8e]	.	4A	an	8DL	.
.	.	4d	.	.	.	8FFJ	.
4e	an	.	.	8B-L	ei-	8GGL	an
.	.	8c#	an	16AL	.	8AAJ	.
.	.	.	.	16GJJ	.	.	.
4d	ei-	16dLL	ei-	8FL	.	8BB-L	ei-
.	.	16cnJ	.	.	.	.	.
.	.	8B-J	.	16GL	.	8GGJ	.
.	.	.	.	16FJJ	.	.	.
4c#	-nen	4A	-nen	16ELL	-nen	4AA	-nen
.	.	.	.	16FJ	.	.	.
.	.	.	.	8GJ	.	.	.
=5	=5	=5	=5	=5	=5	=5	=5
2d;	Gott,	2A;	Gott,	8GL	Gott,	2DD;	Gott,
.	.	.	.	16FL	.	.	.
.	.	.	.	16EJJ	.	.	.
.	.	.	.	4F;	.	.	.
4a	Sch√∂-	8f	Sch√∂-	4d	Sch√∂-	8DL	Sch√∂-
.	.	8e	-pfer	.	.	8EJ	.
4a	-pfer	[4d	Him-	[4A	-pfer	8FL	-pfer
.	.	.	.	.	.	8DJ	.
=6	=6	=6	=6	=6	=6	=6	=6
4dd	Him-	8dL]	.	8AL]	.	4BB	Him-
.	.	16eL	.	8G#J	.	.	.
.	.	16fJJ	.	.	.	.	.
4cc	-mels	4e	-mels	4A	Him-	8CL	-mels
.	.	.	.	.	.	8DJ	.
4b	und	4.e	.	8G#	-mels	8EL	und
.	.	.	.	4c	und	8CJ	.
8aL	der	.	.	.	.	4F	der
8bJ	.	8d	.	16BLL	der	.	.
.	.	.	.	16AJJ	.	.	.
=7	=7	=7	=7	=7	=7	=7	=7
4cc	Er-	8e	.	8G#	.	8EL	.
.	.	4f	.	4A	.	8DJ	.
4b	.	.	.	.	.	4E	.
.	.	16eLL	.	8G#	.	.	.
.	.	16dJJ	.	.	.	.	.
2a;	-den,	2c;	.	2A;	.	2AA;	.
=8	=8	=8	=8	=8	=8	=8	=8
4r	.	4r	.	4r	.	4r	.
4b	der	8eL	.	8GL	.	8EL	.
.	.	8fJ	.	8FJ	.	8DJ	.
4cc	sich	8gL	.	8EL	.	8CL	.
.	.	8eJ	.	8GJ	.	8EJ	.
4a	zum	8cL	.	4A	.	4F	.
.	.	8dJ	.	.	.	.	.
=9	=9	=9	=9	=9	=9	=9	=9
4a	Va-	8eL	.	4.A	.	8C#L	.
.	.	8dJ	.	.	.	8BBJ	.
4e	-ter	8eL	.	.	.	8C#L	.
.	.	8c#J	.	8G	.	8AAJ	.
4f	ge-	8AL	ge-	8.FL	ge-	8DL	.
.	.	16BL	.	.	.	8AAJ	.
.	.	16c#JJ	.	16GJk	.	.	.
4f	-ben	[4d	.	4A	-ben	8FFL	.
.	.	.	.	.	.	8DDJ	.
=10	=10	=10	=10	=10	=10	=10	=10
2e;	hat,	8d]	.	2A;	hat,	2AA;	.
.	.	16c#LL	-ben	.	.	.	.
.	.	16BJJ	.	.	.	.	.
.	.	4c#;	hat,	.	.	.	.
4d	dass	4.d	.	8FL	.	8BB-L	.
.	.	.	.	16GL	.	8AAJ	.
.	.	.	.	16AJJ	.	.	.
4e	wir	.	.	8B-L	.	8GGL	.
.	.	8c#	.	16AL	.	8AAJ	.
.	.	.	.	16GJJ	.	.	.
=11	=11	=11	=11	=11	=11	=11	=11
4f	sei-	8AL	.	4.F	.	8DL	.
.	.	16B-L	.	.	.	8CJ	.
.	.	16cJJ	.	.	.	.	.
4g	-ne	8dL	.	.	.	8BB-L	.
.	.	8cJ	.	8E	.	8CJ	.
4a	Kin-	8cL	.	8FL	.	8FFL	.
.	.	8c#J	.	8EJ	.	16GGL	.
.	.	.	.	.	.	16AAJJ	.
4g	-der	8dL	.	8DL	.	8BB-L	.
.	.	8eJ	.	8B-J	.	16AAL	.
.	.	.	.	.	.	16GGJJ	.
=12	=12	=12	=12	=12	=12	=12	=12
4f	wer-	8e	.	8C#L	.	8AAL	.
.	.	4d	.	8A	.	8FF	.
4e	.	.	.	8B-	.	8GG	.
.	.	8c#	.	16AL	.	8AAJ	.
.	.	.	.	16GJJ	.	.	.
2d;	-den.	2A;	.	2F;	.	2DD;	.
=13	=13	=13	=13	=13	=13	=13	=13
4dd	Er	8BL	.	2G	Er	8GGL	Er
.	.	8cJ	.	.	.	8AAJ	.
4dd	will	8dL	.	.	.	8BBL	will
.	.	8BJ	.	.	.	8GGJ	.
4ee	uns	4c	.	8G	will	4C	uns
.	.	.	.	8A	uns	.	.
4dd	all-	8dL	.	8BL	all-	8GL	all-
.	.	8gJ	.	8GJ	.	8BJ	.
=14	=14	=14	=14	=14	=14	=14	=14
4ee	-zeit	8gL	.	8cL	-zeit	8EL	-zeit
.	.	8aJ	.	8AJ	.	8FJ	.
4cc#	er-	8b-L	er-	4e	er-	8GL	.
.	.	8gJ	.	.	.	8EJ	.
2dd	-n√§h-	8aL	-n√§h-	8d	-n√§h-	8F#L	.
.	.	8f#J	.	4c	.	8DJ	.
.	.	[4g	.	.	.	4G	.
.	.	.	.	8B-	.	.	.
=15	=15	=15	=15	=15	=15	=15	=15
2dd;	-ren,	8gL]	.	2A;	-ren,	2D;	.
.	.	16f#L	.	.	.	.	.
.	.	16eJJ	.	.	.	.	.
.	.	4f#;	-ren,	.	.	.	.
4ee	Seel'	8eL	.	4A	.	8C	Seel'
.	.	8f#J	.	.	.	8D	und
4b	und	8g#L	.	8eL	.	[4E	Leib
.	.	8eJ	.	8dJ	.	.	.
=16	=16	=16	=16	=16	=16	=16	=16
4cc	Leib	4a	.	8cL	.	8EL]	.
.	.	.	.	8dJ	.	8FJ	.
4a	auch	4c#	.	4e	.	8GL	auch
.	.	.	.	.	.	8EJ	.
4a	wohl	4.d	.	4A	.	8FL	.
.	.	.	.	.	.	8GJ	.
4e	be-	.	.	4A	.	8AL	.
.	.	8c#	.	.	.	8GJ	.
=17	=17	=17	=17	=17	=17	=17	=17
2f	-wah-	4.d	.	4.A	.	8FL	.
.	.	.	.	.	.	8EJ	.
.	.	.	.	.	.	4D	.
.	.	16c#LL	.	8G#	.	.	.
.	.	16BJJ	.	.	.	.	.
2e;	-ren,	2c#;	.	2A;	.	2AA;	.
=18	=18	=18	=18	=18	=18	=18	=18
4a	al-	2e	al-	8AL	al-	8CL	.
.	.	.	.	8BJ	.	8DJ	.
4g#	-lem	.	.	8cL	-lem	8EL	.
.	.	.	.	8dJ	.	8BBJ	.
4a	Un-	4e	-lem	8cL	Un-	4C	Un-
.	.	.	.	8BJ	.	.	.
4b	-fall	[4f	Un-	8AL	-fall	[4D	-fall
.	.	.	.	8G#J	.	.	.
=19	=19	=19	=19	=19	=19	=19	=19
4cc	will	8fL]	.	4A	will	8DL]	.
.	.	8f#J	.	.	.	8D#J	.
4b	er	8gL	-fall	[4e	er	8E	will
.	.	8g#J	.	.	.	8C	er
(4a	weh-	8aL	will	8eL]	.	(4F	weh-
.	.	8AJ	.	8dJ	.	.	.
4g#)	.	8BL	er	4e	weh-	4E)	.
.	.	8dJ	.	.	.	.	.
=20	=20	=20	=20	=20	=20	=20	=20
2a;	-ren,	8dL	weh-	2e;	-ren,	2AA;	-ren,
.	.	16cL	.	.	.	.	.
.	.	16BJJ	.	.	.	.	.
.	.	4c;	-ren,	.	.	.	.
(4b	kein	8gL	kein	(4G	kein	(4E	.
.	.	8f	.	.	.	.	.
4cc#)	.	8e	.	4A)	.	4AA)	.
.	.	[8gJ	.	.	.	.	.
=21	=21	=21	=21	=21	=21	=21	=21
2dd	Leid	8gL]	.	2A	Leid	2D	.
.	.	16fL	.	.	.	.	.
.	.	16eJJ	.	.	.	.	.
.	.	4f	Leid	.	.	.	.
4a	soll	4.f	soll	4.d	soll	8DL	soll
.	.	.	.	.	.	8CJ	.
4g	uns	.	.	.	.	8BB-L	uns
.	.	[8e	uns	16cLL	uns	8CJ	.
.	.	.	.	16B-JJ	.	.	.
=22	=22	=22	=22	=22	=22	=22	=22
4a	wi-	8e]	.	[2A	wi-	8FFL	wi-
.	.	4d	wi-	.	.	8GGJ	.
4e	-der-	.	.	.	.	4AA	-der-
.	.	8c#	-der-	.	.	.	.
2f	-fah-	2d	-fah-	8A]	.	8DDL	-fah-
.	.	.	.	8G	-der-	8EE	.
.	.	.	.	8AL	-fah-	8FF	.
.	.	.	.	8BJ	.	8DDJ	.
=23	=23	=23	=23	=23	=23	=23	=23
2e;	-ren,	2e;	-ren,	2c;	-ren,	2AA;	-ren,
2g	er	4e	.	8c#L	.	8EL	er
.	.	.	.	8dJ	.	8D	.
.	.	4A	.	4e	.	8C#	.
.	.	.	.	.	.	8EJ	.
=24	=24	=24	=24	=24	=24	=24	=24
4f	sor-	8dL	.	4A	.	4.D	sor-
.	.	8c	.	.	.	.	.
4e	.	8B-	.	8GL	.	.	.
.	.	8cJ	.	8AJ	.	[8C	.
4d	.	8AL	.	8F#L	.	8CL]	.
.	.	8B-	.	8GJ	.	8BB-	.
4c#	.	8E	.	[4A	.	8AA	.
.	.	8eJ	.	.	.	8GGJ	.
=25	=25	=25	=25	=25	=25	=25	=25
8dL	.	8dL	.	8AL]	.	8FFL	.
8eJ	.	8c#J	.	8GJ	.	8EE	.
4f	-get	2d	.	4A	.	8DD	.
.	.	.	.	.	.	8FFJ	.
2e	f√ºr	.	.	4B-	f√ºr	8GGL	-get
.	.	.	.	.	.	8EEJ	.
.	.	4c#	f√ºr	8AL	uns,	4AA	f√ºr
.	.	.	.	[8GJ	.	.	.
=26	=26	=26	=26	=26	=26	=26	=26
2d;	uns,	2A;	uns,	8GL]	.	2DD;	uns,
.	.	.	.	16FL	.	.	.
.	.	.	.	16EJJ	.	.	.
.	.	.	.	4F;	.	.	.
4f	h√ºt't	4d	.	8B-L	.	4D	.
.	.	.	.	8A	.	.	.
4g	.	[4c	.	8G	.	4E	.
.	.	.	.	8cJ	.	.	.
=27	=27	=27	=27	=27	=27	=27	=27
4a	.	4c]	.	4A	.	8FL	.
.	.	.	.	.	.	8E	.
4b	.	8fL	.	8dL	.	8D	.
.	.	8dJ	.	8BJ	.	8GJ	.
4cc	.	8eL	.	4.G	.	8EL	.
.	.	8f	.	.	.	8D	.
4b	.	8g	.	.	.	8E	.
.	.	8eJ	.	8c	.	8CJ	.
=28	=28	=28	=28	=28	=28	=28	=28
2a;	.	2f;	.	2c;	.	2F;	.
4r	.	4r	.	4r	.	4r	.
4g	und	8fL	und	8dL	und	8BBL	und
.	.	[8eJ	.	[8AJ	.	8C#J	.
=29	=29	=29	=29	=29	=29	=29	=29
4f	wacht,	8e]	.	8A]	.	8DL	wacht,
.	.	4d	wacht,	4B-	wacht,	8BB-	.
4e	.	.	.	.	.	8GG	.
.	.	8c#	.	16ALL	.	8AAJ	.
.	.	.	.	16GJJ	.	.	.
2d;	.	2d;	.	2F;	.	2BB-;	.
=30	=30	=30	=30	=30	=30	=30	=30
2e	es	8c#L	es	2A	es	8AAL	es
.	.	8dJ	.	.	.	8BB	.
.	.	[4e	steht	.	.	8C#	.
.	.	.	.	.	.	8AAJ	.
4f	steht	8eL]	.	(8A	steht	4D	steht
.	.	8dJ	.	4B-)	.	.	.
4g	Al-	8c#L	Al-	.	.	[4E	Al-
.	.	8eJ	.	16ALL	Al-	.	.
.	.	.	.	16GJJ	.	.	.
=31	=31	=31	=31	=31	=31	=31	=31
4f	-les	8A	-les	8AL	.	8E]	.
.	.	4B-	in	16GL	.	4D	-les
.	.	.	.	16FJJ	.	.	.
4e	in	.	.	8GL	-les	.	.
.	.	[8A	sei-	16FL	.	8C#	in
.	.	.	.	16EJJ	.	.	.
4d	sei-	8AL]	.	4F	in	8DL	sei-
.	.	8BnJ	.	.	.	8GG#J	.
4c#	-ner	4A	-ner	16ELL	sei-	4AA	-ner
.	.	.	.	16FJ	.	.	.
.	.	.	.	[8GJ	.	.	.
=32	=32	=32	=32	=32	=32	=32	=32
1d;	Macht.	1A;	Macht.	8G]	.	1DD;	Macht.
.	.	.	.	16F#LL	-ner	.	.
.	.	.	.	16EJJ	.	.	.
.	.	.	.	2.F#;	Macht.	.	.
==|!	==|!	==|!	==|!	==|!	==|!	==|!	==|!
*-	*-	*-	*-	*-	*-	*-	*-
!!!RWG: Key is interpreted using the Humdrum key tool.
!!!END: 1994/08/09
!!!EMD: Converted from MuseData to Humdrum Dec 19, 2000, by Andreas Kornstaedt using muse2kern.
!!!EED: Craig Stuart Sapp
!!!EEV: 2024/03/31
!!!ONB: Some non-unicode characters
